!!!OTL: An das Vaterland
!!!OTL-incipit: DIR MOECHT ICH DIESE LIEDER WEIHEN
!!!COM: L. Kreuzer
!!!ARE: Europa, Mitteleuropa, Deutschland
!!!SCT: F0460
!!!TXL: @@DE
!!!YEM: Copyright 1995, estate of Helmut Schaffrath.
**kern	**text
*ICvox	*
*M4/4	*
*met(c)	*
*k[b-e-a-]	*
*E-:	*
!LO:TX:a:t=Mäßig.	!
!LO:TX:a:t=Für Männerstimmen.	!
{2gg/^	1._Dir
=1	=1
4ff/	möcht'
4ee-/	ich
8.b-/	die-
16b-/	-ſe
8ee-/	Lie-
8ee-/	-der
=2	=2
4ee-/	wei-
4dd/	-hen
4r	.
8r}	.
{8ff/	ge-
=3	=3
4.ff/	-lieb-
8ff/	-tes,
4ee-/	theu-
4dd/	-res
=4	=4
8.ff/	Ba-
16ee-/	-ler-
4ee-/	-landt
4r}	.
{4gg	denn
=5	=5
4.gg/	dir,
8ff/	dem
8.ee-/	neu-
16dd/	-er-
8cc/	-ſtand'-
8cc/	-nen,
=6	=6
8.cc/L	frei-
16ddJ	.
4cc/	-en,
8r}	.
{8cc/	iſt
8cc/	all'
8cc/	mein
=7	=7
4dd/	Sin-
4ff/	-nen
8.ee-/L	ʒu-
16ddJ	.
8.ee-/L	-ge-
16ccJ	.
=8	=8
2dd/	-wandt,
8r}	.
{8ff/	iſt
8ff/	all'
8ff/	mein
=9	=9
4ff/	Sin-
4dd/	-nen
8.ee-/L	ʒu-
16ddJ	.
8.ee-/L	-ge-
16ffJ	.
=10	=10
4dd/	-wandt,
4r}	.
{4.gg/	all'
8gg/	mein
=11	=11
4ff/`	Sin-
4dd/`	-nen
4cc/`	ʒu-
4ff/`	-ge-
=12	=12
2b-/	-wandt.
4r;}	.
{4dd/	3._Doch
=13	=13
4.dd/^	Hel-
8b-/	-den-
2b-/	-blut,
=14	=14
4.ff/^	Hel-
8dd/	-den-
2dd/	-blut
=15	=15
4r}	.
{4ff/	iſt
4.ff/	dir
8ee-/	ge-
=16	=16
4ee-/^	-flos-
4dd/	-sen;
4r}	.
{4b-/	dir
=17	=17
2.b-/	ſank_der
4b-/	Juged
=18	=18
2.b-/	ſchönſte
4b-/}	Ʒier,
=19	=19
{2.b-/	ſchönſte
4b-/	Ʒier
=20	=20
2.ee-/^	ſchön-
4ee-/	-ſte
=21	=21
2dd/;	Ʒier!
8r}	.
{8b-/	Nach
8.b-/	ſol-
16b-/	-chen
=22	=22
4ee-/`	O-
4ee-/`	-pſern,
4r	.
8.ee-/	hei-
16ee-/	-lig
=23	=23
4ee-/`	gro-
4ee-/`	-ßen,
4r}	.
{4cc/	was
=24	=24
4.cc/	gel-
8cc/	-ten
8cc/	die-
8cc/	-ſe
8cc/	Lie-
8cc/	-der
=25	=25
2cc/	dir?
8r}	.
{8cc/	nach
8.ff/	ſol-
16ee-/	-chen
=26	=26
8ee-/L^	O-
8ddJ	.
4dd/`	-pfern,
4r	.
8.gg/	hei-
16ff/	-lig
=27	=27
(8ff/L^	gro-
8ee-J)	.
4ee-/	-ßen,
4r}	.
{4ee-/	was
=28	=28
4.ff/	gel-
8ff/	-ten
8ee-/	die-
8ee-/	-ſe
8dd/	Lie-
8dd/	-der
=29	=29
(4gg^/	dir?
8ee-/)	.
8r}	.
{(4ee-/	was
8cc/)	.
8r	.
=30	=30
4.b-/	gel-
8b-/	-ten
8b-/	die-
8b-/	-ſe
8cc/	Lie-
8b-/	-der
=31	=31
(4gg	dir?
8ee-)	.
8r}	.
{(4ee-/	was
8cc/)	.
8r	.
=32	=32
4.b-/	gel-
8b-/	-ten
8b-/	die-
8b-/	-ſe
8cc/	Lie-
8b-/	-der
=33	=33
2g;	dir?
8r}	.
{8b-/	nach
8.ee-/	ſol-
16ee-/	-chen
=34	=34
4ee-/`	O-
4dd/`	-pfern
4r	.
8.ff/	die-
16ff/	-se
=35	=35
4ff/	Lie-
4ee-/	-der!
8r}	.
{8b-/	nach
8.gg/	ſol-
16ee-/	-chen
=36	=36
4ee-/^	O-
4dd/	-pfern
4r	.
8.dd/	die-
16dd/	-ſe
=37	=37
(2.ff/	Lie-
8.ff/L)	.
16ee-J	.
=38	=38
2ee-/;}	-der!
==	==
!!!AGN: Vaterlands -, Heimat - Lied
!!!ONB: ESAC (Essen Associative Code) Database: FINK
!!!AMT: simple quadruple
!!!AIN: vox
!!!EED: Helmut Schaffrath
!!!EEV: 1.0
!!Text: J. L. Uhland
!!!GTL: Vaterlands- und Heimathslieder.
!!!source: Musikalischer Hausschatz der Deutschen. Eine Sammlung von über 1000 Liedern und Gesängen mit Singstimmen und Klavierbegleitung. Leipzig, Litterarisches Verlags-Haus.
!!!page: 286
!!!ENC: Anna Maria Matuszewska
!!!EEV: 2024/03/14
*-	*-
